Newaita-dark/apps/128/gnome-tetravex.svg

<?xml version="1.0" encoding="UTF-8"?>
<svg xmlns="http://www.w3.org/2000/svg" xmlns:xlink="http://www.w3.org/1999/xlink" width="128pt" height="128pt" viewBox="0 0 128 128" version="1.1">
<defs>
<linearGradient id="linear0" gradientUnits="userSpaceOnUse" x1="254" y1="233.5" x2="254" y2="254.666672" gradientTransform="matrix(0.250024,0,0,0.250024,-0.0000152602,53.75514)">
<stop offset="0" style="stop-color:rgb(0%,0%,0%);stop-opacity:0.27451;"/>
<stop offset="1" style="stop-color:rgb(0%,0%,0%);stop-opacity:0;"/>
</linearGradient>
<radialGradient id="radial0" gradientUnits="userSpaceOnUse" cx="450.908936" cy="189.579361" fx="450.908936" fy="189.579361" r="21.166656" gradientTransform="matrix(0.000000696681,-0.31253,-0.562554,-0.000000406154,208.522593,254.38133)">
<stop offset="0" style="stop-color:rgb(0%,0%,0%);stop-opacity:0.313725;"/>
<stop offset="0.222222" style="stop-color:rgb(0%,0%,0%);stop-opacity:0.27451;"/>
<stop offset="1" style="stop-color:rgb(0%,0%,0%);stop-opacity:0;"/>
</radialGradient>
<radialGradient id="radial1" gradientUnits="userSpaceOnUse" cx="450.908936" cy="189.579361" fx="450.908936" fy="189.579361" r="21.166656" gradientTransform="matrix(-0.000000696681,0.31253,0.562554,0.000000406154,-81.510453,-30.109915)">
<stop offset="0" style="stop-color:rgb(0%,0%,0%);stop-opacity:0.313725;"/>
<stop offset="0.222222" style="stop-color:rgb(0%,0%,0%);stop-opacity:0.27451;"/>
<stop offset="1" style="stop-color:rgb(0%,0%,0%);stop-opacity:0;"/>
</radialGradient>
<radialGradient id="radial2" gradientUnits="userSpaceOnUse" cx="450.908936" cy="189.579361" fx="450.908936" fy="189.579361" r="21.166656" gradientTransform="matrix(-0.000000696681,-0.31253,0.562554,-0.000000406154,-81.510453,254.38133)">
<stop offset="0" style="stop-color:rgb(0%,0%,0%);stop-opacity:0.313725;"/>
<stop offset="0.222222" style="stop-color:rgb(0%,0%,0%);stop-opacity:0.27451;"/>
<stop offset="1" style="stop-color:rgb(0%,0%,0%);stop-opacity:0;"/>
</radialGradient>
<radialGradient id="radial3" gradientUnits="userSpaceOnUse" cx="450.908936" cy="189.579361" fx="450.908936" fy="189.579361" r="21.166656" gradientTransform="matrix(0.000000696681,0.31253,-0.562554,0.000000406154,208.522585,-30.109917)">
<stop offset="0" style="stop-color:rgb(0%,0%,0%);stop-opacity:0.313725;"/>
<stop offset="0.222222" style="stop-color:rgb(0%,0%,0%);stop-opacity:0.27451;"/>
<stop offset="1" style="stop-color:rgb(0%,0%,0%);stop-opacity:0;"/>
</radialGradient>
<linearGradient id="linear1" gradientUnits="userSpaceOnUse" x1="169.333328" y1="233.5" x2="169.333328" y2="32.416683" gradientTransform="matrix(3.779528,0,0,3.779528,0,812.59845)">
<stop offset="0" style="stop-color:rgb(58.431373%,45.882353%,80.392157%);stop-opacity:1;"/>
<stop offset="1" style="stop-color:rgb(70.196078%,61.568627%,85.882353%);stop-opacity:1;"/>
</linearGradient>
<linearGradient id="linear2" gradientUnits="userSpaceOnUse" x1="254" y1="32.41642" x2="254.000015" y2="233.499756" gradientTransform="matrix(1,0,0,-1,0,64.833084)">
<stop offset="0" style="stop-color:rgb(39.215686%,70.980392%,96.470588%);stop-opacity:1;"/>
<stop offset="1" style="stop-color:rgb(56.470588%,79.215686%,97.647059%);stop-opacity:1;"/>
</linearGradient>
<linearGradient id="linear3" gradientUnits="userSpaceOnUse" x1="455.083313" y1="222.916428" x2="52.916656" y2="222.916428" gradientTransform="matrix(0,1,1,0,221.583572,-221.583313)">
<stop offset="0" style="stop-color:rgb(40%,73.333333%,41.568627%);stop-opacity:1;"/>
<stop offset="1" style="stop-color:rgb(50.588235%,78.039216%,51.764706%);stop-opacity:1;"/>
</linearGradient>
<linearGradient id="linear4" gradientUnits="userSpaceOnUse" x1="455.083313" y1="212.333069" x2="52.916653" y2="212.333069" gradientTransform="matrix(0.000000000000000061,1,-1,0.000000000000000061,286.416409,-221.583317)">
<stop offset="0" style="stop-color:rgb(93.72549%,32.54902%,31.372549%);stop-opacity:1;"/>
<stop offset="1" style="stop-color:rgb(89.803922%,45.098039%,45.098039%);stop-opacity:1;"/>
</linearGradient>
<linearGradient id="linear5" gradientUnits="userSpaceOnUse" x1="132.291672" y1="69.458336" x2="132.291672" y2="-4.625" >
<stop offset="0" style="stop-color:rgb(87.843137%,87.843137%,87.843137%);stop-opacity:1;"/>
<stop offset="1" style="stop-color:rgb(93.333333%,93.333333%,93.333333%);stop-opacity:1;"/>
</linearGradient>
<linearGradient id="linear6" gradientUnits="userSpaceOnUse" x1="132.291672" y1="69.458336" x2="132.291672" y2="-4.625" gradientTransform="matrix(-1,0,0,1,508,0)">
<stop offset="0" style="stop-color:rgb(87.843137%,87.843137%,87.843137%);stop-opacity:1;"/>
<stop offset="1" style="stop-color:rgb(93.333333%,93.333333%,93.333333%);stop-opacity:1;"/>
</linearGradient>
<linearGradient id="linear7" gradientUnits="userSpaceOnUse" x1="254" y1="-46.958332" x2="254" y2="-126.333344" >
<stop offset="0" style="stop-color:rgb(87.843137%,87.843137%,87.843137%);stop-opacity:1;"/>
<stop offset="1" style="stop-color:rgb(93.333333%,93.333333%,93.333333%);stop-opacity:1;"/>
</linearGradient>
<linearGradient id="linear8" gradientUnits="userSpaceOnUse" x1="132.291672" y1="69.458336" x2="132.291672" y2="-4.625" gradientTransform="matrix(3.779528,0,0,3.779528,450,1222.598389)">
<stop offset="0" style="stop-color:rgb(87.843137%,87.843137%,87.843137%);stop-opacity:1;"/>
<stop offset="1" style="stop-color:rgb(93.333333%,93.333333%,93.333333%);stop-opacity:1;"/>
</linearGradient>
</defs>
<g id="surface1">
<path style=" stroke:none;fill-rule:nonzero;fill:url(#linear0);" d="M 23.816406 111.742188 L 103.199219 111.742188 L 103.199219 117.625 L 23.816406 117.625 Z M 23.816406 111.742188 "/>
<path style=" stroke:none;fill-rule:nonzero;fill:url(#radial0);" d="M 103.199219 112.136719 L 113.78125 112.136719 L 113.78125 106.84375 L 103.199219 106.84375 Z M 103.199219 112.136719 "/>
<path style=" stroke:none;fill-rule:nonzero;fill:url(#radial1);" d="M 23.816406 112.136719 L 13.230469 112.136719 L 13.230469 117.429688 L 23.816406 117.429688 Z M 23.816406 112.136719 "/>
<path style=" stroke:none;fill-rule:nonzero;fill:url(#radial2);" d="M 23.816406 112.136719 L 13.230469 112.136719 L 13.230469 106.84375 L 23.816406 106.84375 Z M 23.816406 112.136719 "/>
<path style=" stroke:none;fill-rule:nonzero;fill:url(#radial3);" d="M 103.199219 112.136719 L 113.78125 112.136719 L 113.78125 117.429688 L 103.199219 117.429688 Z M 103.199219 112.136719 "/>
<path style="fill-rule:nonzero;fill:url(#linear1);stroke-width:11.338583;stroke-linecap:round;stroke-linejoin:miter;stroke:rgb(0%,0%,0%);stroke-opacity:1;stroke-miterlimit:4;" d="M 960.026483 935.107601 L 223.384191 1671.749893 C 237.851315 1686.217016 257.869089 1695.133488 280.012645 1695.133488 L 1639.981271 1695.133488 C 1662.183876 1695.133488 1682.142601 1686.217016 1696.609725 1671.749893 Z M 960.026483 935.107601 " transform="matrix(0.0661521,0,0,0.0661521,0,0)"/>
<path style="fill-rule:nonzero;fill:url(#linear2);stroke-width:3;stroke-linecap:round;stroke-linejoin:miter;stroke:rgb(0%,0%,0%);stroke-opacity:1;stroke-miterlimit:4;" d="M 254.006994 32.413873 L 59.103731 -162.473766 C 62.93149 -166.301525 68.22786 -168.660675 74.086675 -168.660675 L 433.911689 -168.660675 C 439.786128 -168.660675 445.066873 -166.301525 448.894633 -162.473766 Z M 254.006994 32.413873 " transform="matrix(0.250024,0,0,0.250024,0,53.755133)"/>
<path style="fill-rule:nonzero;fill:url(#linear3);stroke-width:3;stroke-linecap:round;stroke-linejoin:miter;stroke:rgb(0%,0%,0%);stroke-opacity:1;stroke-miterlimit:4;" d="M 254.006994 32.413873 L 448.894633 -162.473766 C 452.722392 -158.66163 455.081542 -153.365261 455.081542 -147.506445 L 455.081542 212.334192 C 455.081542 218.193007 452.722392 223.489376 448.894633 227.317136 Z M 254.006994 32.413873 " transform="matrix(0.250024,0,0,0.250024,0,53.755133)"/>
<path style="fill-rule:nonzero;fill:url(#linear4);stroke-width:3;stroke-linecap:round;stroke-linejoin:miter;stroke:rgb(0%,0%,0%);stroke-opacity:1;stroke-miterlimit:4;" d="M 254.006994 32.413873 L 59.103731 -162.473766 C 55.275971 -158.66163 52.916822 -153.365261 52.916822 -147.506445 L 52.916822 212.334192 C 52.916822 218.193007 55.275971 223.489376 59.103731 227.317136 Z M 254.006994 32.413873 " transform="matrix(0.250024,0,0,0.250024,0,53.755133)"/>
<path style=" stroke:none;fill-rule:nonzero;fill:rgb(0%,0%,0%);fill-opacity:0.196078;" d="M 18.523438 112.136719 C 15.589844 112.136719 13.230469 109.777344 13.230469 106.84375 L 13.230469 106.183594 C 13.230469 109.113281 15.589844 111.472656 18.523438 111.472656 L 108.488281 111.472656 C 111.421875 111.472656 113.78125 109.113281 113.78125 106.183594 L 113.78125 106.84375 C 113.78125 109.777344 111.421875 112.136719 108.488281 112.136719 Z M 18.523438 112.136719 "/>
<path style=" stroke:none;fill-rule:nonzero;fill:rgb(90.196079%,90.196079%,90.196079%);fill-opacity:0.392157;" d="M 18.523438 11.585938 C 15.589844 11.585938 13.230469 13.945312 13.230469 16.875 L 13.230469 17.539062 C 13.230469 14.605469 15.589844 12.242188 18.523438 12.246094 L 108.488281 12.246094 C 111.421875 12.242188 113.78125 14.605469 113.78125 17.539062 L 113.78125 16.875 C 113.78125 13.945312 111.421875 11.585938 108.488281 11.585938 Z M 18.523438 11.585938 "/>
<path style=" stroke:none;fill-rule:nonzero;fill:rgb(12.941177%,12.941177%,12.941177%);fill-opacity:1;" d="M 18.523438 11.210938 C 15.390625 11.210938 12.855469 13.742188 12.855469 16.875 L 12.855469 106.84375 C 12.855469 109.976562 15.390625 112.511719 18.523438 112.511719 L 108.488281 112.511719 C 111.621094 112.511719 114.15625 109.976562 114.15625 106.84375 L 114.15625 16.875 C 114.15625 13.742188 111.621094 11.210938 108.488281 11.210938 Z M 18.523438 11.960938 L 108.488281 11.960938 C 111.21875 11.960938 113.40625 14.144531 113.40625 16.875 L 113.40625 106.84375 C 113.40625 109.574219 111.21875 111.761719 108.488281 111.761719 L 18.523438 111.761719 C 15.792969 111.761719 13.605469 109.574219 13.605469 106.84375 L 13.605469 16.875 C 13.605469 14.144531 15.792969 11.960938 18.523438 11.960938 Z M 18.523438 11.960938 "/>
<path style="fill-rule:nonzero;fill:url(#linear5);stroke-width:3;stroke-linecap:round;stroke-linejoin:miter;stroke:rgb(12.941177%,12.941177%,12.941177%);stroke-opacity:1;stroke-miterlimit:4;" d="M 153.454096 -7.269837 C 159.328535 -7.269837 164.046834 -2.551538 164.046834 3.307278 L 164.046834 29.7735 C 164.046834 35.851045 158.219266 40.350615 153.454096 40.350615 L 127.003497 40.350615 C 124.066277 40.350615 121.707128 43.897152 121.707128 48.287357 C 121.707128 52.693187 124.066277 56.224099 127.003497 56.224099 L 164.046834 56.224099 L 164.046834 61.520469 C 164.046834 67.379284 159.328535 72.097584 153.454096 72.097584 L 116.410758 72.097584 C 110.551943 72.097584 105.833643 67.379284 105.833643 61.520469 L 105.833643 35.06987 C 105.833643 27.648703 110.333214 24.477131 116.410758 24.477131 L 142.876981 24.477131 C 145.8142 24.477131 148.17335 20.946218 148.17335 16.540389 C 148.17335 12.150183 145.8142 8.603647 142.876981 8.603647 L 105.833643 8.603647 L 105.833643 3.307278 C 105.833643 -2.551538 110.551943 -7.269837 116.410758 -7.269837 Z M 153.454096 -7.269837 " transform="matrix(0.250024,0,0,0.250024,0,53.755133)"/>
<path style="fill-rule:nonzero;fill:url(#linear6);stroke-width:3;stroke-linecap:round;stroke-linejoin:miter;stroke:rgb(12.941177%,12.941177%,12.941177%);stroke-opacity:1;stroke-miterlimit:4;" d="M 354.544268 -7.269837 C 348.685452 -7.269837 343.951529 -2.551538 343.951529 3.307278 L 343.951529 29.7735 C 343.951529 35.851045 349.779098 40.350615 354.544268 40.350615 L 380.994867 40.350615 C 383.932086 40.350615 386.291236 43.897152 386.291236 48.287357 C 386.291236 52.693187 383.932086 56.224099 380.994867 56.224099 L 343.951529 56.224099 L 343.951529 61.520469 C 343.951529 67.379284 348.685452 72.097584 354.544268 72.097584 L 391.587605 72.097584 C 397.446421 72.097584 402.16472 67.379284 402.16472 61.520469 L 402.16472 35.06987 C 402.16472 27.648703 397.66515 24.477131 391.587605 24.477131 L 365.121383 24.477131 C 362.199787 24.477131 359.840637 20.946218 359.840637 16.540389 C 359.840637 12.150183 362.199787 8.603647 365.121383 8.603647 L 402.16472 8.603647 L 402.16472 3.307278 C 402.16472 -2.551538 397.446421 -7.269837 391.587605 -7.269837 Z M 354.544268 -7.269837 " transform="matrix(0.250024,0,0,0.250024,0,53.755133)"/>
<path style="fill-rule:nonzero;fill:url(#linear7);stroke-width:3;stroke-linecap:round;stroke-linejoin:miter;stroke:rgb(12.941177%,12.941177%,12.941177%);stroke-opacity:1;stroke-miterlimit:4;" d="M 272.520851 -46.953548 C 278.379666 -46.953548 283.097965 -51.671847 283.097965 -57.546286 L 283.097965 -83.996885 C 283.097965 -90.090053 277.286021 -94.589624 272.520851 -94.589624 L 246.070251 -94.589624 C 243.133032 -94.589624 240.773882 -98.120536 240.773882 -102.526366 C 240.773882 -106.916571 243.133032 -110.463108 246.070251 -110.463108 L 283.097965 -110.463108 L 283.097965 -115.743853 C 283.097965 -121.618293 278.379666 -126.336592 272.520851 -126.336592 L 235.477513 -126.336592 C 229.618698 -126.336592 224.900398 -121.618293 224.900398 -115.743853 L 224.900398 -57.546286 C 224.900398 -51.671847 229.618698 -46.953548 235.477513 -46.953548 Z M 261.943736 -62.827032 L 246.070251 -62.827032 C 243.133032 -62.827032 240.773882 -66.373568 240.773882 -70.763774 C 240.773882 -75.169603 243.133032 -78.716139 246.070251 -78.716139 L 261.943736 -78.716139 C 264.865332 -78.700516 267.224481 -75.169603 267.224481 -70.763774 C 267.224481 -66.373568 264.865332 -62.827032 261.943736 -62.827032 Z M 261.943736 -62.827032 " transform="matrix(0.250024,0,0,0.250024,0,53.755133)"/>
<path style="fill-rule:nonzero;fill:url(#linear8);stroke-width:11.338583;stroke-linecap:round;stroke-linejoin:miter;stroke:rgb(12.941177%,12.941177%,12.941177%);stroke-opacity:1;stroke-miterlimit:4;" d="M 889.993797 1195.102472 C 867.850241 1195.102472 850.017297 1212.935415 850.017297 1235.138021 L 850.017297 1255.096746 L 990.02362 1255.096746 C 1001.065873 1255.096746 1009.982345 1268.500978 1009.982345 1285.093883 L 1009.982345 1495.132891 L 1030.000119 1495.132891 C 1052.143675 1495.132891 1069.976619 1477.299947 1069.976619 1455.097342 L 1069.976619 1235.138021 C 1069.976619 1212.935415 1052.143675 1195.102472 1030.000119 1195.102472 Z M 889.993797 1195.102472 " transform="matrix(0.0661521,0,0,0.0661521,0,0)"/>
</g>
</svg>

<svg xmlns="http://www.w3.org/2000/svg" width="128pt" height="128pt" viewBox="0 0 128 128"><defs><linearGradient id="a" gradientUnits="userSpaceOnUse" x1="254" y1="233.5" x2="254" y2="254.667" gradientTransform="matrix(.25002 0 0 .25002 0 53.755)"><stop offset="0" stop-opacity=".275"/><stop offset="1" stop-opacity="0"/></linearGradient><radialGradient id="b" gradientUnits="userSpaceOnUse" cx="450.909" cy="189.579" fx="450.909" fy="189.579" r="21.167" gradientTransform="matrix(0 -.31253 -.56255 0 208.523 254.381)"><stop offset="0" stop-opacity=".314"/><stop offset=".222" stop-opacity=".275"/><stop offset="1" stop-opacity="0"/></radialGradient><radialGradient id="c" gradientUnits="userSpaceOnUse" cx="450.909" cy="189.579" fx="450.909" fy="189.579" r="21.167" gradientTransform="matrix(0 .31253 .56255 0 -81.51 -30.11)"><stop offset="0" stop-opacity=".314"/><stop offset=".222" stop-opacity=".275"/><stop offset="1" stop-opacity="0"/></radialGradient><radialGradient id="d" gradientUnits="userSpaceOnUse" cx="450.909" cy="189.579" fx="450.909" fy="189.579" r="21.167" gradientTransform="matrix(0 -.31253 .56255 0 -81.51 254.381)"><stop offset="0" stop-opacity=".314"/><stop offset=".222" stop-opacity=".275"/><stop offset="1" stop-opacity="0"/></radialGradient><radialGradient id="e" gradientUnits="userSpaceOnUse" cx="450.909" cy="189.579" fx="450.909" fy="189.579" r="21.167" gradientTransform="matrix(0 .31253 -.56255 0 208.523 -30.11)"><stop offset="0" stop-opacity=".314"/><stop offset=".222" stop-opacity=".275"/><stop offset="1" stop-opacity="0"/></radialGradient><linearGradient id="f" gradientUnits="userSpaceOnUse" x1="169.333" y1="233.5" x2="169.333" y2="32.417" gradientTransform="matrix(3.77953 0 0 3.77953 0 812.598)"><stop offset="0" stop-color="#9575cd"/><stop offset="1" stop-color="#b39ddb"/></linearGradient><linearGradient id="g" gradientUnits="userSpaceOnUse" x1="254" y1="32.416" x2="254" y2="233.5" gradientTransform="matrix(1 0 0 -1 0 64.833)"><stop offset="0" stop-color="#64b5f6"/><stop offset="1" stop-color="#90caf9"/></linearGradient><linearGradient id="h" gradientUnits="userSpaceOnUse" x1="455.083" y1="222.916" x2="52.917" y2="222.916" gradientTransform="rotate(90 221.583 0)"><stop offset="0" stop-color="#66bb6a"/><stop offset="1" stop-color="#81c784"/></linearGradient><linearGradient id="i" gradientUnits="userSpaceOnUse" x1="455.083" y1="212.333" x2="52.917" y2="212.333" gradientTransform="rotate(90 254 32.417)"><stop offset="0" stop-color="#ef5350"/><stop offset="1" stop-color="#e57373"/></linearGradient><linearGradient id="j" gradientUnits="userSpaceOnUse" x1="132.292" y1="69.458" x2="132.292" y2="-4.625"><stop offset="0" stop-color="#e0e0e0"/><stop offset="1" stop-color="#eee"/></linearGradient><linearGradient id="k" gradientUnits="userSpaceOnUse" x1="132.292" y1="69.458" x2="132.292" y2="-4.625" gradientTransform="matrix(-1 0 0 1 508 0)"><stop offset="0" stop-color="#e0e0e0"/><stop offset="1" stop-color="#eee"/></linearGradient><linearGradient id="l" gradientUnits="userSpaceOnUse" x1="254" y1="-46.958" x2="254" y2="-126.333"><stop offset="0" stop-color="#e0e0e0"/><stop offset="1" stop-color="#eee"/></linearGradient><linearGradient id="m" gradientUnits="userSpaceOnUse" x1="132.292" y1="69.458" x2="132.292" y2="-4.625" gradientTransform="matrix(3.77953 0 0 3.77953 450 1222.598)"><stop offset="0" stop-color="#e0e0e0"/><stop offset="1" stop-color="#eee"/></linearGradient></defs><path d="M23.816 111.742H103.2v5.883H23.816zm0 0" fill="url(#a)"/><path d="M103.2 112.137h10.581v-5.293H103.2zm0 0" fill="url(#b)"/><path d="M23.816 112.137H13.23v5.293h10.586zm0 0" fill="url(#c)"/><path d="M23.816 112.137H13.23v-5.293h10.586zm0 0" fill="url(#d)"/><path d="M103.2 112.137h10.581v5.293H103.2zm0 0" fill="url(#e)"/><path d="M960.026 935.108L223.384 1671.75c14.467 14.467 34.485 23.383 56.629 23.383H1639.98c22.203 0 42.162-8.916 56.629-23.383zm0 0" transform="scale(.06615)" fill="url(#f)" stroke-width="11.339" stroke-linecap="round" stroke="#000"/><path d="M254.007 32.414L59.104-162.474a21.109 21.109 0 0 1 14.983-6.187h359.825c5.874 0 11.155 2.36 14.983 6.187zm0 0" transform="matrix(.25002 0 0 .25002 0 53.755)" fill="url(#g)" stroke-width="3" stroke-linecap="round" stroke="#000"/><path d="M254.007 32.414l194.888-194.888c3.827 3.812 6.187 9.109 6.187 14.968v359.84c0 5.859-2.36 11.155-6.187 14.983zm0 0" transform="matrix(.25002 0 0 .25002 0 53.755)" fill="url(#h)" stroke-width="3" stroke-linecap="round" stroke="#000"/><path d="M254.007 32.414L59.104-162.474c-3.828 3.812-6.187 9.109-6.187 14.968v359.84c0 5.859 2.359 11.155 6.187 14.983zm0 0" transform="matrix(.25002 0 0 .25002 0 53.755)" fill="url(#i)" stroke-width="3" stroke-linecap="round" stroke="#000"/><path d="M18.523 112.137a5.28 5.28 0 0 1-5.293-5.293v-.66c0 2.93 2.36 5.289 5.293 5.289h89.965a5.279 5.279 0 0 0 5.293-5.29v.66a5.28 5.28 0 0 1-5.293 5.294zm0 0" fill-opacity=".196"/><path d="M18.523 11.586a5.279 5.279 0 0 0-5.293 5.289v.664a5.277 5.277 0 0 1 5.293-5.293h89.965a5.277 5.277 0 0 1 5.293 5.293v-.664c0-2.93-2.36-5.29-5.293-5.29zm0 0" fill="#e6e6e6" fill-opacity=".392"/><path d="M18.523 11.21a5.661 5.661 0 0 0-5.668 5.665v89.969a5.665 5.665 0 0 0 5.668 5.668h89.965a5.665 5.665 0 0 0 5.668-5.668V16.875a5.661 5.661 0 0 0-5.668-5.664zm0 .75h89.965a4.896 4.896 0 0 1 4.918 4.915v89.969a4.9 4.9 0 0 1-4.918 4.918H18.523a4.9 4.9 0 0 1-4.918-4.918V16.875a4.896 4.896 0 0 1 4.918-4.914zm0 0" fill="#212121"/><path d="M153.454-7.27a10.559 10.559 0 0 1 10.593 10.577v26.466c0 6.078-5.828 10.578-10.593 10.578h-26.45c-2.938 0-5.297 3.546-5.297 7.936 0 4.406 2.36 7.937 5.296 7.937h37.044v5.296a10.559 10.559 0 0 1-10.593 10.578h-37.043a10.555 10.555 0 0 1-10.577-10.578V35.07c0-7.421 4.5-10.593 10.577-10.593h26.466c2.937 0 5.296-3.53 5.296-7.937 0-4.39-2.359-7.936-5.296-7.936h-37.043V3.307A10.555 10.555 0 0 1 116.41-7.27zm0 0" transform="matrix(.25002 0 0 .25002 0 53.755)" fill="url(#j)" stroke-width="3" stroke-linecap="round" stroke="#212121"/><path d="M354.544-7.27c-5.859 0-10.592 4.718-10.592 10.577v26.466c0 6.078 5.827 10.578 10.592 10.578h26.45c2.938 0 5.297 3.546 5.297 7.936 0 4.406-2.359 7.937-5.296 7.937h-37.043v5.296c0 5.86 4.733 10.578 10.592 10.578h37.044a10.555 10.555 0 0 0 10.577-10.578V35.07c0-7.421-4.5-10.593-10.577-10.593H365.12c-2.921 0-5.28-3.53-5.28-7.937 0-4.39 2.359-7.936 5.28-7.936h37.044V3.307A10.555 10.555 0 0 0 391.588-7.27zm0 0" transform="matrix(.25002 0 0 .25002 0 53.755)" fill="url(#k)" stroke-width="3" stroke-linecap="round" stroke="#212121"/><path d="M272.52-46.954a10.559 10.559 0 0 0 10.578-10.592v-26.45c0-6.094-5.812-10.594-10.577-10.594h-26.45c-2.938 0-5.297-3.53-5.297-7.936 0-4.39 2.359-7.937 5.296-7.937h37.028v-5.28a10.559 10.559 0 0 0-10.577-10.594h-37.043a10.559 10.559 0 0 0-10.578 10.593v58.198a10.559 10.559 0 0 0 10.578 10.592zm-10.576-15.873H246.07c-2.937 0-5.296-3.547-5.296-7.937 0-4.406 2.359-7.952 5.296-7.952h15.874c2.921.015 5.28 3.546 5.28 7.952 0 4.39-2.359 7.937-5.28 7.937zm0 0" transform="matrix(.25002 0 0 .25002 0 53.755)" fill="url(#l)" stroke-width="3" stroke-linecap="round" stroke="#212121"/><path d="M889.994 1195.102c-22.144 0-39.977 17.833-39.977 40.036v19.959h140.007c11.042 0 19.958 13.404 19.958 29.997v210.039H1030c22.144 0 39.977-17.833 39.977-40.036v-219.959c0-22.203-17.833-40.036-39.977-40.036zm0 0" transform="scale(.06615)" fill="url(#m)" stroke-width="11.339" stroke-linecap="round" stroke="#212121"/></svg>
